X:1752893902
T:Blackberry Blossom
C:Trad.
R:reel
M:4/4
N:Arranged by Cam Cross ~ 7/25
S:
K:G
"G"gabg "F#m"fgaf|"C"efge "G"dBAG|"C"EFGE "G"DEGA|"A"BdBG "D"Acef|
"G"gabg "F#m"fgaf|"C"efge "G"dBAG|"C"EFGE "G"DEGA|"D"BGAF "G"G4:|
|:"Em"B2eB "B7"dBeB|"Em"B2eB "B7"dBGA|"Em"B2eB dBef|"B7"gabg aged|
"Em"B2eB "B7"dBeB|"Em"B2eB "B7"dBef|"Em"gage "A"dBGA|1 "D"BGAF "G"G2GA:|2 "D"BGAF "G"G2||

%abc-2.1
%%titlefont      Times-Bold 24
%%subtitlefont   Times-Italics 18
%%composerfont   Times-Italics
%%gchordfont     Courier
%%partsfont      Helvetica
%%textfont       Courier
